svgs/light/arrow-down-from-line.svg

<svg xmlns="http://www.w3.org/2000/svg" viewBox="0 0 384 512"><!-- Font Awesome Pro 6.0.0-alpha2 by @fontawesome - https://fontawesome.com License - https://fontawesome.com/license (Commercial License) --><path d="M324.688 308.688L208 425.375V128C208 119.156 200.844 112 192 112S176 119.156 176 128V425.375L59.312 308.688C53.062 302.438 42.937 302.438 36.688 308.688S30.438 325.063 36.688 331.312L180.688 475.312C183.812 478.438 187.906 480 192 480S200.188 478.438 203.312 475.312L347.312 331.312C353.562 325.062 353.562 314.937 347.312 308.688S330.938 302.438 324.688 308.688ZM368 32H16C7.156 32 0 39.156 0 48S7.156 64 16 64H368C376.844 64 384 56.844 384 48S376.844 32 368 32Z"/></svg>

<svg xmlns="http://www.w3.org/2000/svg" viewBox="0 0 384 512"><!--! Font Awesome Pro 6.3.0 by @fontawesome - https://fontawesome.com License - https://fontawesome.com/license (Commercial License) Copyright 2023 Fonticons, Inc. --><path d="M324.7 308.7L208 425.4V128c0-8.844-7.156-16-16-16S176 119.2 176 128v297.4L59.31 308.7c-6.25-6.25-16.38-6.25-22.62 0s-6.25 16.38 0 22.62l144 144C183.8 478.4 187.9 480 192 480s8.188-1.562 11.31-4.688l144-144c6.25-6.25 6.25-16.38 0-22.62S330.9 302.4 324.7 308.7zM368 32h-352C7.156 32 0 39.16 0 48S7.156 64 16 64h352C376.8 64 384 56.84 384 48S376.8 32 368 32z"/></svg>
